X: 24
T:Bonny Breast Knot (Devon)
% Nottingham Music Database
P:AAB
S:Trad, via EF
M:4/4
L:1/4
K:G
P:A
|:"G"GB3/4G/4 "D"FA|"D"De "D7"d/2c/2B/2A/2|"G"GB3/4G/4 "D"FA|"D"d/2^c/2d/2A/2 FD :|
K:D
P:B
|:"D"fd fa|"A7"e/2d/2c/2d/2 e/2f/2g|"D"f/2e/2d/2e/2 f/2g/2a|"A7"a/2g/2f/2e/2 A2|
"D"fd fa|"A7"c/2d/2e/2f/2 ga/2g/2|"D"ff "A7"e/2g/2f/2e/2|"D"df d2:|<end>
<start>
